components/Company/logos/logo-transferwise.svg

<svg height="140" viewBox="0 0 400 140" width="400" xmlns="http://www.w3.org/2000/svg"><g fill="none" transform="translate(25 40)"><path d="m5.79296976 0 7.69414144 12.8840651-13.4871112 12.863272h23.3178525l2.1917356-5.155417h-12.8658038l7.7850496-7.7420335-4.5473543-7.69596988h21.2155248l-18.6245012 43.99496088h6.3815052l20.8251683-49.1488776z" fill="#00cdff"/><path d="m310.954475 42.0430842c-4.110793-.5559745-6.529002-1.3497918-6.529002-4.0449449 0-2.4572868 2.418209-3.963179 5.40259-3.963179 2.415232 0 5.480065.9528714 7.412556 2.379975l2.580615-3.8085789c-2.418209-1.9816013-6.286143-3.0102842-9.914195-3.0102842-6.20569 0-10.799225 3.7253363-10.799225 8.6399099 0 5.6296492 3.626551 7.4521728 9.750288 8.4035674 3.467146.5559745 6.450026.9514181 6.450026 3.8844139 0 2.4572868-2.418185 3.807102-5.642472 3.807102-3.14381 0-5.964307-.8726293-8.705829-3.0147616l-2.334755 4.203999c2.01292 1.8225471 6.20269 3.2496507 10.879678 3.2496507 6.447049 0 11.121061-3.7268366 11.121061-8.7202223 0-6.0250458-4.834918-7.3733607-9.671336-8.006647m-147.190083-.0093768c-4.110793-.5559746-6.529002-1.3497918-6.529002-4.0449449 0-2.4572868 2.418209-3.963179 5.401112-3.963179 2.416709 0 5.480066.9528714 7.412533 2.379975l2.580615-3.8070786c-2.416709-1.9831016-6.286143-3.0117845-9.914195-3.0117845-6.205666 0-10.800702 3.7268131-10.800702 8.6399099 0 5.631126 3.628052 7.4536497 9.754766 8.4050677 3.465645.5544742 6.447049.9513946 6.447049 3.8843904 0 2.4573103-2.419686 3.8056252-5.640995 3.8056252-3.14381 0-5.965784-.8726293-8.707306-3.0132847l-2.336255 4.2010453c2.01442 1.8240239 6.207166 3.2511275 10.881155 3.2511275 6.448549 0 11.122561-3.7253363 11.122561-8.7201988 0-6.0250693-4.834918-7.3719074-9.671336-8.0066705m173.906537 12.1274268c-5.15973 0-8.704328-4.0449448-8.704328-9.9109365 0-5.4690947 3.063357-10.1488027 8.05918-10.1488027 5.724426 0 7.254604 4.7584966 7.41701 7.6929927h-9.894808l-1.853514 4.2813108h17.147935c.078999-1.111949.078999-1.4271036.078999-1.9830781 0-8.086936-4.109316-14.5074253-12.976051-14.5074253-7.656892 0-13.540747 6.1811462-13.540747 14.6650026 0 8.7216757 5.640972 14.5074019 13.701653 14.5074019 4.837895 0 9.109618-1.7422582 11.688733-4.8343082l-3.225764-3.0935502c-2.094873 2.1421322-4.834917 3.331393-7.898274 3.331393m-96.935282-23.3881786c-1.692584-.7120515-3.546098-.8726059-4.595012-.8726059-2.981403 0-6.20569 1.1892608-7.734391 3.331393h-.245836v-3.0935502h-5.156754v28.1436981h5.32066v-15.378531c0-5.9462806 3.222763-8.3233019 7.494486-8.3233019 1.451202 0 2.418185.1561239 3.708505.4742321zm-148.0646815-.0787652c-1.6925845-.7135518-3.5460986-.7923404-4.5950354-.7923404-2.9829039 0-5.8823542 1.1892608-7.415533 3.326939h-.2413591v-3.0890728h-5.1582534v28.1436981h5.3206598v-15.3800313c0-5.9462806 2.9009506-8.3247787 7.1726501-8.3247787 1.4512255 0 2.418209.1591713 3.7085284.475709zm-46.9918128-10.0685138v5.0751281h11.928615v32.5811093h5.6439488v-32.5811093h11.928615v-5.0751281zm65.7712663 26.79686c0 4.199545-3.465646 6.8961749-8.302064 6.8961749-2.90095 0-5.3996125-1.3468147-5.3996125-4.6782312 0-3.0890728 2.5791155-5.1509395 6.5290025-5.1509395 3.546099 0 5.883854.6332628 7.172674 1.5846809zm-7.495986-17.8388184c-3.142334 0-6.1252375.4742322-8.3810166 1.3468381l.886507 4.284288c2.5791385-.7938408 4.6740116-1.111949 6.7703846-1.111949 4.513082 0 8.220111 2.0618667 8.220111 6.6598089v.7923404c-1.449726-.5529973-3.707029-1.268026-7.011745-1.268026-7.2546264 0-12.0090676 3.6465477-12.0090676 9.5928048 0 6.1841234 4.6739881 8.9580651 9.9126946 8.9580651 4.353653 0 7.335057-1.7422582 8.868235-3.8056252h.239883v3.2526278h5.15973v-17.6009755c0-7.6885154-4.997324-11.1001974-12.655716-11.1001974zm32.723965 0c-3.546099 0-6.770362 1.3498153-8.382493 4.1237335h-.239906v-3.567759h-5.159707v28.1422213h5.319136v-15.218c0-5.5508371 2.821998-8.8822301 7.256104-8.8822301 4.188269 0 6.688431 2.219444 6.688431 7.3718839v16.7283462h5.31916v-17.6782639c0-7.1340412-4.18977-11.0199319-10.800725-11.0199319m47.958819 0c0-3.48747 1.692585-5.4705715 4.916848-5.4705715 1.209866 0 3.143833.3181317 4.675512.8741062l1.691084-3.8858907c-2.094873-1.0301832-4.593535-1.4271036-6.527502-1.4271036-5.40109 0-10.075101 2.695153-10.075101 9.9094596v.8726294h-3.546099v4.4403649h3.546099v23.3852015h5.319159v-23.3852015h5.399613l1.854991-4.4403649h-7.254604zm21.036733 24.577416c-5.158254 0-8.704352-4.0449448-8.704352-9.9109365 0-5.4690713 3.06188-10.1488027 8.060681-10.1488027 5.722948 0 7.254603 4.75852 7.415533 7.6929927h-9.893332l-1.852014 4.2813108h17.144958c.079-1.111949.079-1.4271036.079-1.9830781 0-8.086936-4.109317-14.5074019-12.976052-14.5074019-7.656915 0-13.539269 6.1811463-13.539269 14.6649792 0 8.7216991 5.639494 14.5074019 13.700175 14.5074019 4.837895 0 9.108118-1.7422582 11.688733-4.8343082l-3.224286-3.0935502c-2.094873 2.1421556-4.836395 3.331393-7.899752 3.331393m73.992853-33.5354576-6.610956 29.25267h-.239882l-6.850838-19.7371536h-4.755941l-7.819299 19.7371536h-.241382l-5.238683-29.25267h-5.722949l7.171174 37.6562374h5.320659l8.464447-20.849126h.239882l7.338057 20.849126h5.317659l9.108118-37.6562374zm8.866759-.0015003h5.801901v5.7084144h-5.801901zm.241359 9.5140396h5.317659v28.1436981h-5.317659z" fill="#22314c"/></g></svg>

<?xml version="1.0" encoding="UTF-8"?>
<svg width="400px" height="140px" viewBox="0 0 400 140" version="1.1" xmlns="http://www.w3.org/2000/svg" xmlns:xlink="http://www.w3.org/1999/xlink">
    <title>Artboard</title>
    <g id="Artboard" stroke="none" stroke-width="1" fill="none" fill-rule="evenodd">
        <g id="TransferWise_logo" transform="translate(25.000000, 40.000000)" fill-rule="nonzero">
            <polyline id="Fill-1" fill="#00CDFF" points="5.79296976 0 13.4871112 12.8840651 0 25.7473371 23.3178525 25.7473371 25.5095881 20.5919201 12.6437843 20.5919201 20.4288339 12.8498866 15.8814796 5.15391672 37.0970044 5.15391672 18.4725032 49.1488776 24.8540084 49.1488776 45.6791767 0 5.79296976 0"></polyline>
            <path d="M310.954475,42.0430842 C306.843682,41.4871097 304.425473,40.6932924 304.425473,37.9981393 C304.425473,35.5408525 306.843682,34.0349603 309.828063,34.0349603 C312.243295,34.0349603 315.308128,34.9878317 317.240619,36.4149353 L319.821234,32.6063564 C317.403025,30.6247551 313.535091,29.5960722 309.907039,29.5960722 C303.701349,29.5960722 299.107814,33.3214085 299.107814,38.2359821 C299.107814,43.8656313 302.734365,45.6881549 308.858102,46.6395495 C312.325248,47.195524 315.308128,47.5909676 315.308128,50.5239634 C315.308128,52.9812502 312.889943,54.3310654 309.665656,54.3310654 C306.521846,54.3310654 303.701349,53.4584361 300.959827,51.3163038 L298.625072,55.5203028 C300.637992,57.3428499 304.827762,58.7699535 309.50475,58.7699535 C315.951799,58.7699535 320.625811,55.0431169 320.625811,50.0497312 C320.625811,44.0246854 315.790893,42.6763705 310.954475,42.0430842 M163.764392,42.0337074 C159.653599,41.4777328 157.23539,40.6839156 157.23539,37.9887625 C157.23539,35.5314757 159.653599,34.0255835 162.636502,34.0255835 C165.053211,34.0255835 168.116568,34.9784549 170.049035,36.4055585 L172.62965,32.5984799 C170.212941,30.6153783 166.343507,29.5866954 162.715455,29.5866954 C156.509789,29.5866954 151.914753,33.3135085 151.914753,38.2266053 C151.914753,43.8577313 155.542805,45.680255 161.669519,46.631673 C165.135164,47.1861472 168.116568,47.5830676 168.116568,50.5160634 C168.116568,52.9733737 165.696882,54.3216886 162.475573,54.3216886 C159.331763,54.3216886 156.509789,53.4490593 153.768267,51.3084039 L151.432012,55.5094492 C153.446432,57.3334731 157.639178,58.7605767 162.313167,58.7605767 C168.761716,58.7605767 173.435728,55.0352404 173.435728,50.0403779 C173.435728,44.0153086 168.60081,42.6684705 163.764392,42.0337074 M337.670929,54.1611342 C332.511199,54.1611342 328.966601,50.1161894 328.966601,44.2501977 C328.966601,38.781103 332.029958,34.101395 337.025781,34.101395 C342.750207,34.101395 344.280385,38.8598916 344.442791,41.7943877 L334.547983,41.7943877 L332.694469,46.0756985 L349.842404,46.0756985 C349.921403,44.9637495 349.921403,44.6485949 349.921403,44.0926204 C349.921403,36.0056844 345.812087,29.5851951 336.945352,29.5851951 C329.28846,29.5851951 323.404605,35.7663413 323.404605,44.2501977 C323.404605,52.9718734 329.045577,58.7575996 337.106258,58.7575996 C341.944153,58.7575996 346.215876,57.0153414 348.794991,53.9232914 L345.569227,50.8297412 C343.474354,52.9718734 340.73431,54.1611342 337.670953,54.1611342 M240.735671,30.7729556 C239.043087,30.0609041 237.189573,29.9003497 236.140659,29.9003497 C233.159256,29.9003497 229.934969,31.0896105 228.406268,33.2317427 L228.160432,33.2317427 L228.160432,30.1381925 L223.003678,30.1381925 L223.003678,58.2818906 L228.324338,58.2818906 L228.324338,42.9033596 C228.324338,36.957079 231.547101,34.5800577 235.818824,34.5800577 C237.270026,34.5800577 238.237009,34.7361816 239.527329,35.0542898 L240.735671,30.7729556 M92.6709895,30.6941904 C90.978405,29.9806386 89.1248909,29.90185 88.0759541,29.90185 C85.0930502,29.90185 82.1935999,31.0911108 80.6604211,33.228789 L80.419062,33.228789 L80.419062,30.1397162 L75.2608086,30.1397162 L75.2608086,58.2834143 L80.5814684,58.2834143 L80.5814684,42.903383 C80.5814684,36.9571024 83.482419,34.5786043 87.7541185,34.5786043 C89.205344,34.5786043 90.1723275,34.7377756 91.4626469,35.0543133 L92.6709895,30.6941904 M45.6791767,20.6256766 L45.6791767,25.7008047 L57.6077917,25.7008047 L57.6077917,58.281914 L63.2517405,58.281914 L63.2517405,25.7008047 L75.1803555,25.7008047 L75.1803555,20.6256766 L45.6791767,20.6256766 M111.450443,47.4225366 C111.450443,51.6220816 107.984797,54.3187115 103.148379,54.3187115 C100.247429,54.3187115 97.7487665,52.9718968 97.7487665,49.6404803 C97.7487665,46.5514075 100.327882,44.4895408 104.277769,44.4895408 C107.823868,44.4895408 110.161623,45.1228036 111.450443,46.0742217 L111.450443,47.4225366 L111.450443,47.4225366 L111.450443,47.4225366 Z M103.954457,29.5837182 C100.812123,29.5837182 97.8292195,30.0579504 95.5734404,30.9305563 L96.4599474,35.2148443 C99.0390859,34.4210035 101.133959,34.1028953 103.230332,34.1028953 C107.743414,34.1028953 111.450443,36.164762 111.450443,40.7627042 L111.450443,41.5550446 C110.000717,41.0020473 107.743414,40.2870186 104.438698,40.2870186 C97.1840716,40.2870186 92.4296304,43.9335663 92.4296304,49.8798234 C92.4296304,56.0639468 97.1036185,58.8378885 102.342325,58.8378885 C106.695978,58.8378885 109.677382,57.0956303 111.21056,55.0322633 L111.450443,55.0322633 L111.450443,58.2848911 L116.610173,58.2848911 L116.610173,40.6839156 C116.610173,32.9954002 111.612849,29.5837182 103.954457,29.5837182 L103.954457,29.5837182 Z M136.678422,29.5837182 C133.132323,29.5837182 129.90806,30.9335335 128.295929,33.7074517 L128.056023,33.7074517 L128.056023,30.1396927 L122.896316,30.1396927 L122.896316,58.281914 L128.215452,58.281914 L128.215452,43.063914 C128.215452,37.5130769 131.03745,34.1816839 135.471556,34.1816839 C139.659825,34.1816839 142.159987,36.4011279 142.159987,41.5535678 L142.159987,58.281914 L147.479147,58.281914 L147.479147,40.6036501 C147.479147,33.4696089 143.289377,29.5837182 136.678422,29.5837182 M184.637241,29.5837182 C184.637241,26.0962482 186.329826,24.1131467 189.554089,24.1131467 C190.763955,24.1131467 192.697922,24.4312784 194.229601,24.9872529 L195.920685,21.1013622 C193.825812,20.071179 191.32715,19.6742586 189.393183,19.6742586 C183.992093,19.6742586 179.318082,22.3694116 179.318082,29.5837182 L179.318082,30.4563476 L175.771983,30.4563476 L175.771983,34.8967125 L179.318082,34.8967125 L179.318082,58.281914 L184.637241,58.281914 L184.637241,34.8967125 L190.036854,34.8967125 L191.891845,30.4563476 L184.637241,30.4563476 L184.637241,29.5837182 M205.673974,54.1611342 C200.51572,54.1611342 196.969622,50.1161894 196.969622,44.2501977 C196.969622,38.7811264 200.031502,34.101395 205.030303,34.101395 C210.753251,34.101395 212.284906,38.859915 212.445836,41.7943877 L202.552504,41.7943877 L200.70049,46.0756985 L217.845448,46.0756985 C217.924448,44.9637495 217.924448,44.6485949 217.924448,44.0926204 C217.924448,36.0056844 213.815131,29.5852185 204.948396,29.5852185 C197.291481,29.5852185 191.409127,35.7663648 191.409127,44.2501977 C191.409127,52.9718968 197.048621,58.7575996 205.109302,58.7575996 C209.947197,58.7575996 214.21742,57.0153414 216.798035,53.9232914 L213.573749,50.8297412 C211.478876,52.9718968 208.737354,54.1611342 205.673997,54.1611342 M279.66685,20.6256766 L273.055894,49.8783466 L272.816012,49.8783466 L265.965174,30.141193 L261.209233,30.141193 L253.389934,49.8783466 L253.148552,49.8783466 L247.909869,20.6256766 L242.18692,20.6256766 L249.358094,58.281914 L254.678753,58.281914 L263.1432,37.432788 L263.383082,37.432788 L270.721139,58.281914 L276.038798,58.281914 L285.146916,20.6256766 L279.66685,20.6256766 M288.533609,20.6241763 L294.33551,20.6241763 L294.33551,26.3325907 L288.533609,26.3325907 L288.533609,20.6241763 Z M288.774968,30.1382159 L294.092627,30.1382159 L294.092627,58.281914 L288.774968,58.281914 L288.774968,30.1382159 Z" id="Fill-14" fill="#22314C"></path>
        </g>
    </g>
</svg>
